X:1

T:Battle of Kinloch Lochy

T:Blar Leine

M:3/4

L:1/8

R:Slow Air

S:Fraser Collection  (1874)

Z:AK/Fiddler’s Companion

K:Cmin

G>^F|G2 B2 c>=B|c2 d2 e>c|d2 g2 fg|c2 BG e>c|d2 g2 b>d|c2 BG e>g|d2 c2 d/c/=B/c/|G4:|

|:E/F/G/B/|e4 f/e/d/c/|d2 c2 (3cdf|g4 g/f/e/d/|e2 G2 f/e/d/c/|d2 g2 b>d|c2 BG e>g|d2 c2 d/c/=B/c/|G4:|

                       

BATTLE OF MARENGO, THE. Irish. Composed by Dubliner Tom Cooke (1782‑1848) in 1804.

           

BATTLE OF NEW ORLEANS.  Old-Time, Breakdown. USA, Arkansas. G Major. Standard tuning. AA’BB’. A ‘crooked’ (irregular metre in both parts) tune in the repertoire of Arkansas fiddler Absie (sometimes Apsie) Morrison (1876-1964), who recorded with family members in the early 1930’s for Victor Records as the Morrison Twin Brothers Band. Morrison, who linked many of his tunes with American military events, claimed to have the fiddle that his Scottish great-grandfather emigrated with prior to the American Revolution. He claimed that another ancestor, John Sidney Morrison, fought with Andrew Jackson in the Battle of New Orleans in 1815 and that John Sidney and a black man named Jack (or Bob) Johnson lay in wait, sheltered behind a bale of cotton, until they spied British General Edward Pakenham, whereupon the shot and killed him (actually, Pakenham was slain, by all accounts, when hit by a cannonball) [see Judith Mculloh’s article “Uncle Absie Morrison’s Historical Tunes,” Mid-America Folklore 3 (Winter, 1975, pgs. 95-104)]. Source for notated version: Absie Morrison (1876-1964, Searcy County, Arkansas) [Beisswenger & McCann]. Beisswenger & McCann (Ozark Fiddle Music), 2008; pg. 101.

           

BATTLE OF PENTLAND HILLS. See “Pentland Hills.”

                       

BATTLE OF PRAGUE, THE. English. “The Battle of Prague” is the title of several English dance tunes. See “March in the Battle of Prague.”

                       

BATTLE OF SHERIFFMUIR, THE. Scottish, Pibroch. A Major. Standard tuning. AABBCC. This pipe pibroch is said to have been composed by John MacIntyre of the brae Raunoch family (who was then Piper to Menzies of Menzies) after the well-fought but indecisive victory of the Stewarts during the Jacobite rising of 1715. Collinson (1975) maintains this piece gave the “Sherramuir March” its name, but he says MacIntyre’s march was a previously existing melody identified with the Stewart clan as their march tune. Not only was it played at Sheriffmuir, says Collinson, but it had previously been heard at Pinkie (1547) and Inverlochy (1645), and again post-Sheriffmuir at Prestonpans in 1745 during the last Jacobite rebellion.

